SVG_Azure_All/BareMetal Instances.svg

<?xml version="1.0" encoding="UTF-8" standalone="no"?>
<!-- Generated by Microsoft Visio, SVG Export BareMetal Instances.svg Page-1 -->

<svg
   xmlns:dc="http://purl.org/dc/elements/1.1/"
   xmlns:cc="http://creativecommons.org/ns#"
   xmlns:rdf="http://www.w3.org/1999/02/22-rdf-syntax-ns#"
   xmlns:svg="http://www.w3.org/2000/svg"
   xmlns="http://www.w3.org/2000/svg"
   xmlns:sodipodi="http://sodipodi.sourceforge.net/DTD/sodipodi-0.dtd"
   xmlns:inkscape="http://www.inkscape.org/namespaces/inkscape"
   width="0.79666442in"
   height="0.74686331in"
   viewBox="0 0 57.360003 53.773948"
   xml:space="preserve"
   class="st8"
   version="1.1"
   id="svg81"
   sodipodi:docname="BareMetal Instances.svg"
   style="font-size:12px;overflow:visible;color-interpolation-filters:sRGB;fill:none;fill-rule:evenodd;stroke-linecap:square;stroke-miterlimit:3"
   inkscape:version="0.92.5 (2060ec1f9f, 2020-04-08)"><metadata
   id="metadata85"><rdf:RDF><cc:Work
       rdf:about=""><dc:format>image/svg+xml</dc:format><dc:type
         rdf:resource="http://purl.org/dc/dcmitype/StillImage" /></cc:Work></rdf:RDF></metadata><sodipodi:namedview
   pagecolor="#ffffff"
   bordercolor="#666666"
   borderopacity="1"
   objecttolerance="10"
   gridtolerance="10"
   guidetolerance="10"
   inkscape:pageopacity="0"
   inkscape:pageshadow="2"
   inkscape:window-width="640"
   inkscape:window-height="480"
   id="namedview83"
   showgrid="false"
   inkscape:zoom="1.4532679"
   inkscape:cx="38.235355"
   inkscape:cy="35.836299"
   inkscape:window-x="0"
   inkscape:window-y="0"
   inkscape:window-maximized="0"
   inkscape:current-layer="svg81" />
	<style
   type="text/css"
   id="style2">
	<![CDATA[
		.st1 {fill:#76bc2d;stroke:none;stroke-linecap:butt;stroke-width:34}
		.st2 {fill:#5ea0ef;stroke:none;stroke-linecap:butt;stroke-width:34}
		.st3 {fill:#0078d4;stroke:none;stroke-linecap:butt;stroke-width:34}
		.st4 {fill:#005ba1;stroke:none;stroke-linecap:butt;stroke-width:34}
		.st5 {fill:#f2f2f2;stroke:none;stroke-linecap:butt;stroke-width:34}
		.st6 {fill:#83b9f9;stroke:none;stroke-linecap:butt;stroke-width:34}
		.st7 {fill:url(#grad0-26);stroke:none;stroke-linecap:butt;stroke-width:34}
		.st8 {fill:none;fill-rule:evenodd;font-size:12px;overflow:visible;stroke-linecap:square;stroke-miterlimit:3}
	]]>
	</style>

	<defs
   id="Patterns_And_Gradients">
		<linearGradient
   id="grad0-26"
   x1="-7.3695484e-08"
   y1="148.38033"
   x2="12.898031"
   y2="148.38033"
   gradientTransform="scale(1.3242332,0.75515403)"
   gradientUnits="userSpaceOnUse">
			<stop
   offset="0"
   stop-color="#005ba1"
   stop-opacity="1"
   id="stop4" />
			<stop
   offset="0.15"
   stop-color="#0063af"
   stop-opacity="1"
   id="stop6" />
			<stop
   offset="0.44"
   stop-color="#006fc3"
   stop-opacity="1"
   id="stop8" />
			<stop
   offset="0.725"
   stop-color="#0076d0"
   stop-opacity="1"
   id="stop10" />
			<stop
   offset="1"
   stop-color="#0078d4"
   stop-opacity="1"
   id="stop12" />
		</linearGradient>
	</defs>
	<g
   id="g79"
   transform="translate(-34.0039,-34.000402)">
		<title
   id="title16">Page-1</title>
		<g
   id="group7356-1"
   transform="translate(34.3339,-34.0157)">
			<title
   id="title18">BareMetal Instances</title>
			<g
   id="group7357-2">
				<title
   id="title20">Sheet.7357</title>
				<g
   id="shape7358-3"
   transform="translate(27.9896,-4.32904)">
					<title
   id="title22">Sheet.7358</title>
					<rect
   x="0"
   y="111.692"
   width="3.76508"
   height="10.1022"
   class="st1"
   id="rect24"
   style="fill:#76bc2d;stroke:none;stroke-width:34;stroke-linecap:butt" />
				</g>
				<g
   id="shape7359-5"
   transform="rotate(90,26.72215,94.73785)">
					<title
   id="title27">Sheet.7359</title>
					<path
   d="m 0,119.88 a 1.89092,1.91319 -180 0 0 1.89,1.91 h 9.75 a 1.89092,1.91319 -180 0 0 1.89,-1.91 V 66.35 A 1.89092,1.91319 -180 0 0 11.64,64.43 H 1.89 A 1.89092,1.91319 -180 0 0 0,66.35 Z"
   class="st2"
   id="path29"
   inkscape:connector-curvature="0"
   style="fill:#5ea0ef;stroke:none;stroke-width:34;stroke-linecap:butt" />
				</g>
				<g
   id="shape7360-7"
   transform="rotate(90,20.01935,101.44065)">
					<title
   id="title32">Sheet.7360</title>
					<path
   d="m 0,119.88 a 1.89092,1.91319 -180 0 0 1.89,1.91 h 9.75 a 1.89092,1.91319 -180 0 0 1.89,-1.91 V 66.35 A 1.89092,1.91319 -180 0 0 11.64,64.43 H 1.89 A 1.89092,1.91319 -180 0 0 0,66.35 Z"
   class="st3"
   id="path34"
   inkscape:connector-curvature="0"
   style="fill:#0078d4;stroke:none;stroke-width:34;stroke-linecap:butt" />
				</g>
				<g
   id="shape7361-9"
   transform="rotate(90,13.22045,108.23955)">
					<title
   id="title37">Sheet.7361</title>
					<path
   d="m 0,119.88 a 1.89092,1.91319 -180 0 0 1.89,1.91 h 9.75 a 1.89092,1.91319 -180 0 0 1.89,-1.91 V 66.35 A 1.89092,1.91319 -180 0 0 11.64,64.43 H 1.89 A 1.89092,1.91319 -180 0 0 0,66.35 Z"
   class="st4"
   id="path39"
   inkscape:connector-curvature="0"
   style="fill:#005ba1;stroke:none;stroke-width:34;stroke-linecap:butt" />
				</g>
				<g
   id="shape7362-11"
   transform="translate(5.94275,-44.2318)">
					<title
   id="title42">Sheet.7362</title>
					<ellipse
   cx="3.1114399"
   cy="118.646"
   rx="3.1114399"
   ry="3.1480899"
   class="st5"
   id="ellipse44"
   style="fill:#f2f2f2;stroke:none;stroke-width:34;stroke-linecap:butt" />
				</g>
				<g
   id="shape7363-13"
   transform="translate(15.5239,-44.2318)">
					<title
   id="title47">Sheet.7363</title>
					<ellipse
   cx="3.1114399"
   cy="118.646"
   rx="3.1114399"
   ry="3.1480899"
   class="st5"
   id="ellipse49"
   style="fill:#f2f2f2;stroke:none;stroke-width:34;stroke-linecap:butt" />
				</g>
				<g
   id="shape7364-15"
   transform="translate(5.94275,-31.1198)">
					<title
   id="title52">Sheet.7364</title>
					<ellipse
   cx="3.1114399"
   cy="118.646"
   rx="3.1114399"
   ry="3.1480899"
   class="st6"
   id="ellipse54"
   style="fill:#83b9f9;stroke:none;stroke-width:34;stroke-linecap:butt" />
				</g>
				<g
   id="shape7365-17"
   transform="translate(15.5239,-31.1198)">
					<title
   id="title57">Sheet.7365</title>
					<ellipse
   cx="3.1114399"
   cy="118.646"
   rx="3.1114399"
   ry="3.1480899"
   class="st6"
   id="ellipse59"
   style="fill:#83b9f9;stroke:none;stroke-width:34;stroke-linecap:butt" />
				</g>
				<g
   id="shape7366-19"
   transform="translate(5.94275,-18.1361)">
					<title
   id="title62">Sheet.7366</title>
					<ellipse
   cx="3.1114399"
   cy="118.646"
   rx="3.1114399"
   ry="3.1480899"
   class="st6"
   id="ellipse64"
   style="fill:#83b9f9;stroke:none;stroke-width:34;stroke-linecap:butt" />
				</g>
				<g
   id="shape7367-21"
   transform="translate(15.5239,-18.1361)">
					<title
   id="title67">Sheet.7367</title>
					<ellipse
   cx="3.1114399"
   cy="118.646"
   rx="3.1114399"
   ry="3.1480899"
   class="st6"
   id="ellipse69"
   style="fill:#83b9f9;stroke:none;stroke-width:34;stroke-linecap:butt" />
				</g>
				<g
   id="shape7368-23"
   transform="translate(21.2832)">
					<title
   id="title72">Sheet.7368</title>
					<path
   d="m 0,116.93 a 4.81234,4.86902 -180 0 0 4.81,4.86 h 7.46 a 4.81234,4.86902 -180 0 0 4.81,-4.86 v -0.01 a 4.81234,4.86902 -180 0 0 -4.81,-4.87 H 4.81 A 4.81234,4.86902 -180 0 0 0,116.92 Z"
   class="st7"
   id="path74"
   inkscape:connector-curvature="0"
   style="fill:url(#grad0-26);stroke:none;stroke-width:34;stroke-linecap:butt" />
				</g>
			</g>
		</g>
	</g>
</svg>

<?xml version="1.0" encoding="UTF-8" standalone="no"?>
<!DOCTYPE svg PUBLIC "-//W3C//DTD SVG 1.1//EN" "http://www.w3.org/Graphics/SVG/1.1/DTD/svg11.dtd">
<!-- Generated by Microsoft Visio, SVG Export BareMetal Instances.svg Page-1 -->
<svg xmlns="http://www.w3.org/2000/svg" xmlns:xlink="http://www.w3.org/1999/xlink" xmlns:ev="http://www.w3.org/2001/xml-events"
		width="1.74112in" height="1.69159in" viewBox="0 0 125.361 121.794" xml:space="preserve" color-interpolation-filters="sRGB"
		class="st8">
	<style type="text/css">
	<![CDATA[
		.st1 {fill:#76bc2d;stroke:none;stroke-linecap:butt;stroke-width:34}
		.st2 {fill:#5ea0ef;stroke:none;stroke-linecap:butt;stroke-width:34}
		.st3 {fill:#0078d4;stroke:none;stroke-linecap:butt;stroke-width:34}
		.st4 {fill:#005ba1;stroke:none;stroke-linecap:butt;stroke-width:34}
		.st5 {fill:#f2f2f2;stroke:none;stroke-linecap:butt;stroke-width:34}
		.st6 {fill:#83b9f9;stroke:none;stroke-linecap:butt;stroke-width:34}
		.st7 {fill:url(#grad0-26);stroke:none;stroke-linecap:butt;stroke-width:34}
		.st8 {fill:none;fill-rule:evenodd;font-size:12px;overflow:visible;stroke-linecap:square;stroke-miterlimit:3}
	]]>
	</style>

	<defs id="Patterns_And_Gradients">
		<linearGradient id="grad0-26" x1="0" y1="0" x2="1" y2="0" gradientTransform="rotate(-90 0.5 0.5)">
			<stop offset="0" stop-color="#005ba1" stop-opacity="1"/>
			<stop offset="0.15" stop-color="#0063af" stop-opacity="1"/>
			<stop offset="0.44" stop-color="#006fc3" stop-opacity="1"/>
			<stop offset="0.725" stop-color="#0076d0" stop-opacity="1"/>
			<stop offset="1" stop-color="#0078d4" stop-opacity="1"/>
		</linearGradient>
	</defs>
	<g>
		<title>Page-1</title>
		<g id="group7188-1" transform="translate(34.3339,-34.0157)">
			<title>BareMetal Instances</title>
			<g id="group7189-2">
				<title>Sheet.7189</title>
				<g id="shape7190-3" transform="translate(27.9896,-4.32904)">
					<title>Sheet.7190</title>
					<rect x="0" y="111.692" width="3.76508" height="10.1022" class="st1"/>
				</g>
				<g id="shape7191-5" transform="translate(121.46,68.0157) rotate(90)">
					<title>Sheet.7191</title>
					<path d="M0 119.88 A1.89092 1.91319 -180 0 0 1.89 121.79 L11.64 121.79 A1.89092 1.91319 -180 0 0 13.53 119.88
								 L13.53 66.35 A1.89092 1.91319 -180 0 0 11.64 64.43 L1.89 64.43 A1.89092 1.91319 -180 0 0 0 66.35
								 L0 119.88 Z" class="st2"/>
				</g>
				<g id="shape7192-7" transform="translate(121.46,81.4213) rotate(90)">
					<title>Sheet.7192</title>
					<path d="M0 119.88 A1.89092 1.91319 -180 0 0 1.89 121.79 L11.64 121.79 A1.89092 1.91319 -180 0 0 13.53 119.88
								 L13.53 66.35 A1.89092 1.91319 -180 0 0 11.64 64.43 L1.89 64.43 A1.89092 1.91319 -180 0 0 0 66.35
								 L0 119.88 Z" class="st3"/>
				</g>
				<g id="shape7193-9" transform="translate(121.46,95.0191) rotate(90)">
					<title>Sheet.7193</title>
					<path d="M0 119.88 A1.89092 1.91319 -180 0 0 1.89 121.79 L11.64 121.79 A1.89092 1.91319 -180 0 0 13.53 119.88
								 L13.53 66.35 A1.89092 1.91319 -180 0 0 11.64 64.43 L1.89 64.43 A1.89092 1.91319 -180 0 0 0 66.35
								 L0 119.88 Z" class="st4"/>
				</g>
				<g id="shape7194-11" transform="translate(5.94275,-44.2318)">
					<title>Sheet.7194</title>
					<ellipse cx="3.11144" cy="118.646" rx="3.11144" ry="3.14809" class="st5"/>
				</g>
				<g id="shape7195-13" transform="translate(15.5239,-44.2318)">
					<title>Sheet.7195</title>
					<ellipse cx="3.11144" cy="118.646" rx="3.11144" ry="3.14809" class="st5"/>
				</g>
				<g id="shape7196-15" transform="translate(5.94275,-31.1198)">
					<title>Sheet.7196</title>
					<ellipse cx="3.11144" cy="118.646" rx="3.11144" ry="3.14809" class="st6"/>
				</g>
				<g id="shape7197-17" transform="translate(15.5239,-31.1198)">
					<title>Sheet.7197</title>
					<ellipse cx="3.11144" cy="118.646" rx="3.11144" ry="3.14809" class="st6"/>
				</g>
				<g id="shape7198-19" transform="translate(5.94275,-18.1361)">
					<title>Sheet.7198</title>
					<ellipse cx="3.11144" cy="118.646" rx="3.11144" ry="3.14809" class="st6"/>
				</g>
				<g id="shape7199-21" transform="translate(15.5239,-18.1361)">
					<title>Sheet.7199</title>
					<ellipse cx="3.11144" cy="118.646" rx="3.11144" ry="3.14809" class="st6"/>
				</g>
				<g id="shape7200-23" transform="translate(21.2832,1.13687E-13)">
					<title>Sheet.7200</title>
					<path d="M0 116.93 A4.81234 4.86902 -180 0 0 4.81 121.79 L12.27 121.79 A4.81234 4.86902 -180 0 0 17.08 116.93
								 L17.08 116.92 A4.81234 4.86902 -180 0 0 12.27 112.05 L4.81 112.05 A4.81234 4.86902 -180 0 0 0 116.92
								 L0 116.93 Z" class="st7"/>
				</g>
			</g>
		</g>
	</g>
</svg>
